!!!COM: Haydn, Franz Joseph
!!!OTL: String Quartet in G Major
!!!OPS: Opus 54
!!!ONM: No. 1
!!!OMD: Menuetto
!!!OMV: 3
!!!SCT: H III:58
!!!SCA: Thematisch-bibliographisches Werkevererzeichnis (A. van Hoboken)
!!!YOR: Trautwein Edition
!!!ENC: Frances Bennion
!!!CDT: 1732/3/31/-1809/5/31/
!!!CNT: Oesterreich
!!!YEC: Copyright (c) 1994, 2000 Center for Computer Assisted Research in the Humanities
!!!YEM: Rights to all derivative editions reserved.
!!!YEM: Refer to licensing agreement for further details.
!!!YEN: United States of America
**kern	**kern	**kern	**kern
*k[f#]	*k[f#]	*k[f#]	*k[f#]
*G:	*G:	*G:	*G:
*clefF4	*clefC3	*clefG	*clefG
*M3/4	*M3/4	*M3/4	*M3/4
2r	2r	2r	2r
4r	4r	4r	8.d
.	.	.	16g
=1	=1	=1	=1
4G	2.d	2.g	2.b
4G	.	.	.
4G	.	.	.
=2	=2	=2	=2
4G	2.c	2.f#	8a
.	.	.	8dd
4G	.	.	2dd
4G	.	.	.
=3	=3	=3	=3
4G	4B	4g	4dd
4G	4B	2r	8cc
.	.	.	8b
4G	4B	.	8a
.	.	.	8g
=4	=4	=4	=4
2.D	4A	2.r	4f#
.	8G	.	4a
.	8F#	.	.
.	8E	.	4a
.	8D	.	.
=5	=5	=5	=5
4D	2.r	2.r	4a
8C#	.	.	4r
8C	.	.	.
8BB	.	.	8.d
8AA	.	.	.
.	.	.	16g
=6	=6	=6	=6
4GG	2.d	2.g	2.b
4G	.	.	.
4G	.	.	.
=7	=7	=7	=7
4G	2.c	2.f#	8a
.	.	.	8dd#
4G	.	.	4.dd#
4G	.	.	.
.	.	.	8ee
=8	=8	=8	=8
4G	4B	4g	8ee
.	.	.	8dd
4r	2r	4r	8cc
.	.	.	8b
4BB	.	4d	8a
.	.	.	8g
=9	=9	=9	=9
4C	4r	4e	4a
4AA	4e	4c	4cc
4D	4c	4A	4f#
=10	=10	=10	=10
4GG	4B	4B	4g
4G	2r	2r	4r
4r	.	.	8.B
.	.	.	16e
=11	=11	=11	=11
4E	8e	8g	4g
.	8g	8b	.
4E	8e	8g	4b
.	8g	8b	.
4E	8e	8g	4ee
.	8g	8b	.
=12	=12	=12	=12
4E	8e	8g	4gg
.	8g	8b	.
4E	8b	8g	4ee
.	8g	8b	.
4E	8e	8g	16aa#
.	.	.	8.bb
.	8g	8b	.
=13	=13	=13	=13
4D#	8d#	8f#	4b
.	8f#	8b	.
4D#	8d#	8f#	4b
.	8f#	8b	.
4D#	8d#	8f#	4b
.	8f#	8b	.
=14	=14	=14	=14
4D#	8d#	8f#	2b
.	8f#	8b	.
4D#	8d#	8f#	.
.	8f#	8b	.
4D#	8d#	8f#	8.bb
.	8f#	8b	.
.	.	.	16ff#
=15	=15	=15	=15
4E	8e	8g	4gg
.	8g	8b	.
4E	8b	8g	4ee
.	8g	8b	.
4C#	8c#	8e	8.aa
.	8e	8a	.
.	.	.	16ee
=16	=16	=16	=16
4D	8d	8f#	4ff#
.	8f#	8a	.
4D	8a	8f#	4dd
.	8f#	8a	.
4D	8d	8f#	8.ff#
.	8f#	8dd	.
.	.	.	16aa
=17	=17	=17	=17
4BB	8d	4ff#	4ddd
.	8c#	.	.
4BB	8d	4gg	4ddd
.	8d#	.	.
4BB	8e	4gg#	4ddd
.	8e#	.	.
=18	=18	=18	=18
2.AA	2.f#	2.aa	2.ddd
=19	=19	=19	=19
2.AA	2.G	2.c#	2.e
=20	=20	=20	=20
4DD	4F#	4d	4d
4D	2r	2r	4r
4D	.	.	8.c#
.	.	.	16d
=21	=21	=21	=21
4DD	2A	2d	2f#
4D	.	.	.
4D	4r	4r	8.c#
.	.	.	16d
=22	=22	=22	=22
4DD	2B-	2c#	2g
4D	.	.	.
4D	4r	4r	8.c#
.	.	.	16d
=23	=23	=23	=23
4DD	2F#	2c	4a
4r	.	.	8g
.	.	.	8f#
8CC#	4r	4r	8e
8DD	.	.	8d
=24	=24	=24	=24
4FF#	4D	4A	4.c
2r	2r	2r	.
.	.	.	8B
.	.	.	8.d
.	.	.	16g
=25	=25	=25	=25
4G	2.d	2.g	2.b
4G	.	.	.
4G	.	.	.
=26	=26	=26	=26
4G	2.c	2.f#	8a
.	.	.	8dd
4G	.	.	2dd
4G	.	.	.
=27	=27	=27	=27
4G	4B	4g	4dd
4G	4B	2r	8cc
.	.	.	8b
4G	4B	.	8a
.	.	.	8g
=28	=28	=28	=28
2.D	4A	2.r	4f#
.	8G	.	4a
.	8F#	.	.
.	8E	.	4a
.	8D	.	.
=29	=29	=29	=29
4D	2.r	2.r	4a
8C#	.	.	4r
8C	.	.	.
8BB	.	.	8.d
8AA	.	.	.
.	.	.	16g
=30	=30	=30	=30
4GG	2.d	2.g	2.b
4G	.	.	.
4G	.	.	.
=31	=31	=31	=31
4G	2.c	2.f#	8a
.	.	.	8dd#
4G	.	.	4.dd#
4G	.	.	.
.	.	.	8ee
=32	=32	=32	=32
4G	4B	4g	8ee
.	.	.	8dd
4r	2r	4r	8cc
.	.	.	8b
4BB	.	4d	8a
.	.	.	8g
=33	=33	=33	=33
4C	4r	4e	4a
4AA	4e	4c	4cc
4D	4c	4A	4f#
=34	=34	=34	=34
4E	4B	4G	4g
2r	2r	2r	2r
=35	=35	=35	=35
2.r	2.r	2.r	2r
.	.	.	8.g
.	.	.	16cc
=36	=36	=36	=36
2.r	4e	4g	2.cc
.	4e	4g	.
.	4e	4g	.
=37	=37	=37	=37
2.r	4d	4g#	8b
.	.	.	8ff
.	4d	4g#	2ff
.	4d	4g#	.
=38	=38	=38	=38
2.r	4c	4a	8ff
.	.	.	8ee
.	4c	4a	8dd
.	.	.	8cc
.	4c	4a	8b
.	.	.	8a
=39	=39	=39	=39
2.r	4c	4f#	8a
.	.	.	8ee-
.	4c	4f#	2ee-
.	4c	4f#	.
=40	=40	=40	=40
2.r	4c#	4g	8a
.	.	.	8ee
.	4c#	4g	2ee
.	4c#	4g	.
=41	=41	=41	=41
4C	[2.d	4f#	8.a
.	.	.	16ff#
4BB	.	4g	8.b
.	.	.	16gg
4AA	.	4a	8.cc
.	.	.	16aa
=42	=42	=42	=42
4GG	4d]	4b	8.dd
.	.	.	16ddd
4r	2r	4G	8.bb
.	.	.	16gg
4BB	.	4d	8.dd
.	.	.	16b
=43	=43	=43	=43
4C	4r	4e	4a
4AA	4e	4c	4cc
4D	4c	4A	4f#
=44	=44	=44	=44
4GG	4B	4B	4g
4r	2r	2r	2r
8G	.	.	.
8B	.	.	.
=45	=45	=45	=45
8d	4r	4r	2.r
8c#	.	.	.
8c	4d	4a	.
8A	.	.	.
8F#	4d	4a	.
8D	.	.	.
=46	=46	=46	=46
8G	4d	4b	2.r
8D	.	.	.
8BB	4r	4g	.
8GG	.	.	.
8AA	8c	8f#	.
8GG	8B	8g	.
=47	=47	=47	=47
8FF#	4A	4a	2.r
8DD	.	.	.
8FF#	4r	4a	.
8DD	.	.	.
8GG	4G	8b	.
8DD	.	16a	.
.	.	16b	.
=48	=48	=48	=48
8AA	4F#	4cc	2.r
8C	.	.	.
8D	2r	2r	.
8F#	.	.	.
8G	.	.	.
8B	.	.	.
=49	=49	=49	=49
8d	4r	4r	2.r
8c#	.	.	.
8c	4d	4a	.
8A	.	.	.
8F#	4d	4a	.
8D	.	.	.
=50	=50	=50	=50
8G	4d	4b	2.r
8D	.	.	.
8BB	2r	4g	.
8GG	.	.	.
8EE	.	4b	.
8DD	.	.	.
=51	=51	=51	=51
8CC	2.A#	4gg	2.r
8EE	.	.	.
8GG	.	8ff#	.
8C	.	8ee	.
8E	.	8dd#	.
8C	.	8ee	.
=52	=52	=52	=52
8BB	4B	4dd#	2.r
8D#	.	.	.
8F#	2r	2r	.
8B	.	.	.
8d	.	.	.
8B	.	.	.
=53	=53	=53	=53
8A	4r	2.r	4r
8G#	.	.	.
8B	4g#	.	8g#
8G#	.	.	8b
8E	4g#	.	8dd
8D	.	.	8ff
=54	=54	=54	=54
8C	4a	2.r	8ee
8E	.	.	8cc
8G#	2r	.	8b
8A	.	.	8a
8c	.	.	4r
8A	.	.	.
=55	=55	=55	=55
8G	2r	2.r	4r
8F#	.	.	.
8A	.	.	8f#
8F#	.	.	8a
8D	4f#	.	8cc
8C	.	.	8ee
=56	=56	=56	=56
8BB	4g	2r	8dd
8D	.	.	8b
8F#	4r	.	8a
8G	.	.	8g
8BB	[4G	8f	8ff
8D	.	16e	16ee
.	.	16f	16ff
=57	=57	=57	=57
8C	4G]	4e	4ee
8G	.	.	.
8C#	2A	8g	8gg
8E	.	16f#	16ff#
.	.	16g	16gg
8D	.	4f#	4ff#
8A	.	.	.
=58	=58	=58	=58
8D#	4B	8a	8aa
8B	.	16g	16gg
.	.	16a	16aa
8E	4c	4g	4gg
8c	.	.	.
8F#	4a	4cc	4ccc
8d	.	.	.
=59	=59	=59	=59
8G	4g	4b	4bb
8d	.	.	.
8c	4c	4a	4aa
8e	.	.	.
8c#	4c#	4g	4gg
8e	.	.	.
=60	=60	=60	=60
8d	4d	2f#	2ff#
8A	.	.	.
8F#	2r	.	.
8D	.	.	.
8G	.	4r	4r
8B	.	.	.
=61	=61	=61	=61
8d	4r	4r	4r
8c#	.	.	.
8c	4d	4a	4aa
8A	.	.	.
8F#	4d	4a	4aa
8D	.	.	.
=62	=62	=62	=62
8G	4d	4b	4bb
8D	.	.	.
8BB	4r	4g	4gg
8GG	.	.	.
8AA	8c	8f#	8ff#
8GG	8B	8g	8gg
=63	=63	=63	=63
8FF#	4A	4a	4aa
8DD	.	.	.
8FF#	4r	4a	4aa
8DD	.	.	.
8GG	4G	8b	8bb
8DD	.	16a	16aa
.	.	16b	16bb
=64	=64	=64	=64
8AA	4F#	4cc	4ccc
8C	.	.	.
8D	2r	2r	2r
8F#	.	.	.
8G	.	.	.
8B	.	.	.
=65	=65	=65	=65
8d	4r	4r	4r
8c#	.	.	.
8c	4d	4a	4aa
8A	.	.	.
8F#	4d	4a	4aa
8D	.	.	.
=66	=66	=66	=66
8G	4d	4b	4bb
8D	.	.	.
8BB	2r	4g	4gg
8GG	.	.	.
8EE	.	8g	8gg
8DD	.	16f#	16ff#
.	.	16g	16gg
=67	=67	=67	=67
8CC	4e	4a	4aa
8EE	.	.	.
8AA	4c	4cc	4ccc
8C	.	.	.
8D	4A	4f#	4ff#
8DD	.	.	.
=68	=68	=68	=68
4GG	4B	4g	4gg
4G	2r	2r	2r
4r	.	.	.
==	==	==	==
*-	*-	*-	*-
!!!RWG1: This file contains only pitch and duration data.
!!!RWG2: Transposing instruments are not transposed.
!!!RWG3: Spines may have incompatible meters.
!!!RWG4: Durations of rests and tied notes may be interpreted.
!!!RWG: Key is interpreted using the Humdrum key tool.
!!!GTL: 6 Quators ("Tost I + II")
!!!AFT: stage1
!!!END: 1997/04/15
!!!KEY: 3270896088
!!!EMD: Converted from MuseData to Humdrum Dec 16, 2000, by Andreas Kornstaedt using muse2kern.
!!!EMD: Manual editing by Craig Sapp, Nov 2001
